build/manager/defaults/usr/share/manager/static/img/proxy.svg

<?xml version="1.0" encoding="UTF-8" standalone="no"?>
<svg
   version="1.1"
   viewBox="0 0 65.75880506923158 80.96648800136307"
   width="65.75880506923158"
   height="80.96648800136307"
   id="svg38"
   sodipodi:docname="proxy.svg"
   inkscape:version="1.1.2 (0a00cf5339, 2022-02-04)"
   xmlns:inkscape="http://www.inkscape.org/namespaces/inkscape"
   xmlns:sodipodi="http://sodipodi.sourceforge.net/DTD/sodipodi-0.dtd"
   xmlns="http://www.w3.org/2000/svg"
   xmlns:svg="http://www.w3.org/2000/svg">
  <defs
     id="defs42" />
  <sodipodi:namedview
     id="namedview40"
     pagecolor="#ffffff"
     bordercolor="#666666"
     borderopacity="1.0"
     inkscape:pageshadow="2"
     inkscape:pageopacity="0.0"
     inkscape:pagecheckerboard="0"
     showgrid="false"
     inkscape:zoom="10.782238"
     inkscape:cx="32.924518"
     inkscape:cy="40.436873"
     inkscape:window-width="1920"
     inkscape:window-height="1043"
     inkscape:window-x="1920"
     inkscape:window-y="0"
     inkscape:window-maximized="1"
     inkscape:current-layer="svg38" />
  <g
     transform="translate(11.319488,38.415552)"
     id="g4"
     style="stroke:#501616;stroke-linecap:round">
    <path
       d="M -0.2,-0.37 C 1.73,-3.11 4.35,-12.01 11.67,-16.68 19,-21.36 38.5,-26.52 43.77,-28.42 M 0.7,0.63 c 2.1,-2.64 4.9,-11.93 12.05,-16.71 7.15,-4.78 25.73,-10.05 30.82,-11.98"
       stroke="#868e96"
       stroke-width="1"
       fill="none"
       id="path2"
       style="stroke:#501616" />
  </g>
  <g
     transform="translate(11.319488,38.415552)"
     id="g10"
     style="stroke:#501616;stroke-linecap:round;fill:#501616">
    <path
       d="m 44.16,-27.49 -10.68,9.63 -5.19,-11.77 15.61,1.35"
       stroke="none"
       stroke-width="0"
       fill="#868e96"
       fill-rule="evenodd"
       id="path6"
       style="stroke:#501616;fill:#501616" />
    <path
       d="m 43.57,-28.06 c -3.92,2.79 -7.07,6.84 -10.87,10.33 m 10.87,-10.33 c -1.99,2.14 -4.6,4.37 -10.87,10.33 m 0,0 c -1.28,-4.85 -3.6,-8.55 -4.03,-12.02 m 4.03,12.02 c -1.01,-2.35 -1.54,-5.33 -4.03,-12.02 m 0,0 c 5.47,0.98 9.28,0.79 14.9,1.69 m -14.9,-1.69 c 5.61,0.44 11.83,1.38 14.9,1.69 m 0,0 c 0,0 0,0 0,0 m 0,0 c 0,0 0,0 0,0"
       stroke="#868e96"
       stroke-width="1"
       fill="none"
       id="path8"
       style="stroke:#501616;fill:#501616" />
  </g>
  <g
     transform="translate(17.319488,39.36292)"
     id="g16"
     style="stroke:#501616;stroke-linecap:round">
    <path
       d="m -0.93,0.83 c 2.49,-0.16 9,-0.88 15.56,-0.79 6.56,0.09 19.89,1.06 23.81,1.35 M 0.78,0.22 C 3.16,0.7 7.64,0.77 13.8,1.08 19.96,1.39 33.65,1.86 37.74,2.09"
       stroke="#868e96"
       stroke-width="1"
       fill="none"
       id="path14"
       style="stroke:#501616" />
  </g>
  <g
     transform="translate(17.319488,39.36292)"
     id="g22"
     style="stroke:#501616;stroke-linecap:round;fill:#501616">
    <path
       d="m 39.33,0.66 -12.19,6.59 -1.3,-9.7 12.05,4.27"
       stroke="none"
       stroke-width="0"
       fill="#868e96"
       fill-rule="evenodd"
       id="path18"
       style="stroke:#501616;fill:#501616" />
    <path
       d="m 38.57,2.31 c -4.8,1.08 -8.1,2.06 -12.71,3.57 m 11.95,-3.2 c -2.4,0.3 -4.37,1.42 -10.99,4.28 m -0.68,0 c 0.91,-3.77 0.99,-5.02 0.74,-10.28 m 0.03,9.56 C 27.2,3.7 27,1.28 27.34,-3.89 m -0.93,-0.67 c 3.56,2.25 6.02,4.73 11.25,7.02 M 27,-3.47 c 3.91,2.13 8.49,3.83 10.26,5.9 m 0.48,-0.34 c 0,0 0,0 0,0 m 0,0 c 0,0 0,0 0,0"
       stroke="#868e96"
       stroke-width="1"
       fill="none"
       id="path20"
       style="stroke:#501616;fill:#501616" />
  </g>
  <g
     transform="translate(10.214225,42.257657)"
     id="g28"
     style="stroke:#501616;stroke-linecap:round">
    <path
       d="m 0.3,-0.47 c 3.52,3.2 13.41,14.72 20.51,19.49 7.11,4.77 18.48,7.61 22.09,9.14 M -0.21,0.48 c 3.46,3.3 13.33,14.47 20.51,19.17 7.17,4.71 18.8,7.56 22.53,9.06"
       stroke="#868e96"
       stroke-width="1"
       fill="none"
       id="path26"
       style="stroke:#501616" />
  </g>
  <g
     transform="translate(10.214225,42.257657)"
     id="g34"
     style="stroke:#501616;stroke-linecap:round;fill:#501616">
    <path
       d="m 42.45,28.83 -10.85,0.97 3.54,-9.32 8.6,8.72"
       stroke="none"
       stroke-width="0"
       fill="#868e96"
       fill-rule="evenodd"
       id="path30"
       style="stroke:#501616;fill:#501616" />
    <path
       d="m 42.83,28.71 c -3.32,0.17 -5.77,1.23 -11.56,1.31 m 11.56,-1.31 c -3.05,0.27 -6.63,0.83 -11.56,1.31 m 0,0 c 0.41,-2.59 1.21,-4.81 3.13,-9.32 m -3.13,9.32 c 1.26,-3.75 2.36,-7.06 3.13,-9.32 m 0,0 c 3.53,2.92 6.46,5.2 8.43,8.01 M 34.4,20.7 c 2,2.04 4.07,3.99 8.43,8.01 m 0,0 c 0,0 0,0 0,0 m 0,0 c 0,0 0,0 0,0"
       stroke="#868e96"
       stroke-width="1"
       fill="none"
       id="path32"
       style="stroke:#501616;fill:#501616" />
  </g>
</svg>

<?xml version="1.0" standalone="no"?>
<!DOCTYPE svg PUBLIC "-//W3C//DTD SVG 1.1//EN" "http://www.w3.org/Graphics/SVG/1.1/DTD/svg11.dtd">
<svg version="1.1" xmlns="http://www.w3.org/2000/svg" viewBox="0 0 65.75880506923158 80.96648800136307" width="65.75880506923158" height="80.96648800136307">
  <g stroke-linecap="round">
    <g transform="translate(11.319487730062974 38.41555155652674) rotate(0 21.736842105263122 -13.97368421052633)">
      <path d="M-0.2 -0.37 C1.73 -3.11, 4.35 -12.01, 11.67 -16.68 C19 -21.36, 38.5 -26.52, 43.77 -28.42 M0.7 0.63 C2.8 -2.01, 5.6 -11.3, 12.75 -16.08 C19.9 -20.86, 38.48 -26.13, 43.57 -28.06" stroke="#868e96" stroke-width="1" fill="none" />
    </g>
    <g transform="translate(11.319487730062974 38.41555155652674) rotate(0 21.736842105263122 -13.97368421052633)">
      <path d="M44.16 -27.49 L33.48 -17.86 L28.29 -29.63 L43.9 -28.28" stroke="none" stroke-width="0" fill="#868e96" fill-rule="evenodd" />
      <path d="M43.57 -28.06 C39.65 -25.27, 36.5 -21.22, 32.7 -17.73 M43.57 -28.06 C41.58 -25.92, 38.97 -23.69, 32.7 -17.73 M32.7 -17.73 C31.42 -22.58, 29.1 -26.28, 28.67 -29.75 M32.7 -17.73 C31.69 -20.08, 31.16 -23.06, 28.67 -29.75 M28.67 -29.75 C34.14 -28.77, 37.95 -28.96, 43.57 -28.06 M28.67 -29.75 C34.28 -29.31, 40.5 -28.37, 43.57 -28.06 M43.57 -28.06 C43.57 -28.06, 43.57 -28.06, 43.57 -28.06 M43.57 -28.06 C43.57 -28.06, 43.57 -28.06, 43.57 -28.06" stroke="#868e96" stroke-width="1" fill="none" />
    </g>
  </g>
  <g stroke-linecap="round">
    <g transform="translate(17.31948773006252 39.362919977579395) rotate(0 19.15789473684231 1.2894736842105203)">
      <path d="M-0.93 0.83 C1.56 0.67, 8.07 -0.05, 14.63 0.04 C21.19 0.13, 34.52 1.1, 38.44 1.39 M0.78 0.22 C3.16 0.7, 7.64 0.77, 13.8 1.08 C19.96 1.39, 33.65 1.86, 37.74 2.09" stroke="#868e96" stroke-width="1" fill="none" />
    </g>
    <g transform="translate(17.31948773006252 39.362919977579395) rotate(0 19.15789473684231 1.2894736842105203)">
      <path d="M39.33 0.66 L27.14 7.25 L25.84 -2.45 L37.89 1.82" stroke="none" stroke-width="0" fill="#868e96" fill-rule="evenodd" />
      <path d="M38.57 2.31 C33.77 3.39, 30.47 4.37, 25.86 5.88 M37.81 2.68 C35.41 2.98, 33.44 4.1, 26.82 6.96 M26.14 6.96 C27.05 3.19, 27.13 1.94, 26.88 -3.32 M26.91 6.24 C27.2 3.7, 27 1.28, 27.34 -3.89 M26.41 -4.56 C29.97 -2.31, 32.43 0.17, 37.66 2.46 M27 -3.47 C30.91 -1.34, 35.49 0.36, 37.26 2.43 M37.74 2.09 C37.74 2.09, 37.74 2.09, 37.74 2.09 M37.74 2.09 C37.74 2.09, 37.74 2.09, 37.74 2.09" stroke="#868e96" stroke-width="1" fill="none" />
    </g>
  </g>
  <g stroke-linecap="round">
    <g transform="translate(10.21422457216795 42.257656819684655) rotate(0 21.187266642848954 14.128622857154568)">
      <path d="M0.3 -0.47 C3.82 2.73, 13.71 14.25, 20.81 19.02 C27.92 23.79, 39.29 26.63, 42.9 28.16 M-0.21 0.48 C3.25 3.78, 13.12 14.95, 20.3 19.65 C27.47 24.36, 39.1 27.21, 42.83 28.71" stroke="#868e96" stroke-width="1" fill="none" />
    </g>
    <g transform="translate(10.21422457216795 42.257656819684655) rotate(0 21.187266642848954 14.128622857154568)">
      <path d="M42.45 28.83 L31.6 29.8 L35.14 20.48 L43.74 29.2" stroke="none" stroke-width="0" fill="#868e96" fill-rule="evenodd" />
      <path d="M42.83 28.71 C39.51 28.88, 37.06 29.94, 31.27 30.02 M42.83 28.71 C39.78 28.98, 36.2 29.54, 31.27 30.02 M31.27 30.02 C31.68 27.43, 32.48 25.21, 34.4 20.7 M31.27 30.02 C32.53 26.27, 33.63 22.96, 34.4 20.7 M34.4 20.7 C37.93 23.62, 40.86 25.9, 42.83 28.71 M34.4 20.7 C36.4 22.74, 38.47 24.69, 42.83 28.71 M42.83 28.71 C42.83 28.71, 42.83 28.71, 42.83 28.71 M42.83 28.71 C42.83 28.71, 42.83 28.71, 42.83 28.71" stroke="#868e96" stroke-width="1" fill="none" />
    </g>
  </g>
</svg>
